X: 1
T: The History Man
R: barndance
M: 4/4
L: 1/8
K: Gmaj
BA|:G3A BAGA|BG d2 de/2d/2BA|G3A BAGA|BGdB A2BA|G3A BAGA|BGd2 de/2d/2Bd|
e3f edBG|AGAB AGEG|c3B AGEG|AGAB AGEG|1A6 B/2c/2B/2A/2:|2 A3A AGAB||
|:c3d efg2|g/2a/2gfe d2Bd|efg2 gagf|e6 Bd|
efg2 f2ed|B2Bd BAGF|GAB A2 B/2A/2GF|1G3A AGAB:|2 G6||


Tune 2938	Setting 16112

